X:3076
T:Lott'er d\od
C:anon.
O:Denmark
F:http://abc.musicaviva.com/tunes/denmark/lotter-doed/lotter-doed-1.abc
M:2/4
L:1/8
K:G
"G"BdG2|"G"BdG2|"C"ce ge|"C"e2"G"d2|"G"BdG2|"G"BdG2|"D7"AB cF|"D7"A2 "G"G2:|
|:"Em"g2g2|"Bm"f2f2|"C"e2e2|"G"d4|"C"ce dc|"G"Bd cB|"Am"Ac "D7"BA|"G"G4:|
W:
W:
W:  From Musica Viva - http://www.musicaviva.com
W:  the Internet center for free sheet music downloads.
